src/images/icons/banner.svg

<svg width="32" height="32" viewBox="0 0 32 32" fill="currentColor" xmlns="http://www.w3.org/2000/svg">
<path d="M29.3334 8.5521V23.4479C29.3334 25.2005 27.9743 26.8334 26.1588 26.8334H10C9.63183 26.8334 9.33335 26.5349 9.33335 26.1667V26.1459C9.33335 25.7777 9.63183 25.4792 10 25.4792H26.1588C27.2471 25.4769 28.0615 24.4988 28.0635 23.4479V8.5521C28.0615 7.50128 27.2471 6.52317 26.1588 6.52085H5.84129C4.75293 6.52317 3.93849 7.50128 3.93653 8.5521V23.4479C3.93849 24.4988 4.75293 25.4769 5.84129 25.4792H7.66669C8.03488 25.4792 8.33335 25.7777 8.33335 26.1459V26.1667C8.33335 26.5349 8.03488 26.8334 7.66669 26.8334H5.84129C4.0257 26.8334 2.66669 25.2005 2.66669 23.4479V8.5521C2.66669 6.79957 4.0257 5.16669 5.84129 5.16669H26.1588C27.9743 5.16669 29.3334 6.79957 29.3334 8.5521Z"/>
<path fill-rule="evenodd" clip-rule="evenodd" d="M25.5238 11.2604C25.5238 10.2089 24.7084 9.22919 23.6191 9.22919H8.38097C7.29162 9.22919 6.47621 10.2089 6.47621 11.2604V20.7396C6.47621 21.7911 7.29162 22.7709 8.38097 22.7709H23.6191C24.7084 22.7709 25.5238 21.7911 25.5238 20.7396V11.2604ZM24.254 20.4593V11.2604C24.254 10.9013 23.9559 10.5834 23.6191 10.5834H8.38097C8.04419 10.5834 7.74605 10.9013 7.74605 11.2604V20.4593L9.57335 18.5106C10.2717 17.7648 11.4464 17.7248 12.188 18.4307L15.9226 14.4481C16.6523 13.6695 17.8874 13.6695 18.6172 14.4481L24.254 20.4593ZM12.1905 11.9375C11.1008 11.9379 10.2854 12.9182 10.2857 13.9701C10.2861 15.022 11.1021 16.0018 12.1918 16.0014C13.2815 16.001 14.0969 15.0207 14.0965 13.9688C14.0962 12.9168 13.2802 11.9371 12.1905 11.9375Z"/>
</svg>

<svg xmlns="http://www.w3.org/2000/svg" fill="currentColor" viewBox="0 0 32 32">
  <path d="M28.404 6.158c.595.635.93 1.496.93 2.394v14.896c0 .898-.335 1.759-.93 2.394a3.078 3.078 0 0 1-2.245.991H10a.667.667 0 0 1-.667-.666v-.021c0-.368.299-.667.667-.667h16.159a1.85 1.85 0 0 0 1.346-.596c.357-.38.558-.897.559-1.435V8.552a2.106 2.106 0 0 0-.56-1.435 1.85 1.85 0 0 0-1.345-.596H5.84a1.85 1.85 0 0 0-1.345.596 2.11 2.11 0 0 0-.56 1.435v14.896c.002.538.203 1.054.56 1.435.356.38.84.595 1.345.596h1.826c.368 0 .666.299.666.667v.02a.667.667 0 0 1-.666.667H5.84c-.842 0-1.65-.356-2.245-.991a3.503 3.503 0 0 1-.93-2.394V8.552c0-.898.335-1.759.93-2.394a3.078 3.078 0 0 1 2.245-.991h20.32c.842 0 1.65.356 2.245.991Z"/>
  <path fill-rule="evenodd" d="M25.524 11.26c0-.538-.2-1.055-.558-1.436a1.847 1.847 0 0 0-1.347-.595H8.381c-.505 0-.99.214-1.347.595a2.102 2.102 0 0 0-.558 1.436v9.48c0 .538.2 1.055.558 1.436.357.38.842.595 1.347.595h15.238c.505 0 .99-.214 1.347-.595s.558-.898.558-1.436v-9.48Zm-1.27 9.2v-9.2a.7.7 0 0 0-.186-.478.616.616 0 0 0-.449-.199H8.381a.615.615 0 0 0-.449.199.7.7 0 0 0-.186.478v9.2l1.827-1.95a1.85 1.85 0 0 1 1.293-.594c.486-.015.96.17 1.322.515l3.734-3.983a1.89 1.89 0 0 1 .619-.44 1.802 1.802 0 0 1 1.458 0c.231.102.441.251.618.44l5.637 6.011ZM12.19 11.936c-.505 0-.99.215-1.347.596a2.102 2.102 0 0 0-.557 1.437c0 .539.2 1.056.558 1.437.358.38.842.595 1.348.594.25 0 .498-.052.729-.155.231-.102.441-.252.618-.44a2.05 2.05 0 0 0 .413-.66 2.149 2.149 0 0 0 0-1.555 2.044 2.044 0 0 0-.414-.659 1.904 1.904 0 0 0-.618-.44 1.803 1.803 0 0 0-.73-.155Z" clip-rule="evenodd"/>
</svg>
